pc/_inc/system.svg

<svg xmlns="http://www.w3.org/2000/svg"><path d="m0 0v16.422h116.79v-16.422zm133.335 0v16.422h166.431s-17.001-16.422-39.516-16.422zm199.077 0v16.422h100.689l-5.976-16.422zm172.878 0-5.976 16.422h99.774v-16.422zm-505.29 31.932v16.422h116.79v-16.422zm133.335.024v16.398h185.745s-2.172-12.639-5.955-16.398zm199.077 0v16.398h111.729l-5.535-16.398zm160.923 0-5.532 16.398h111.282v-16.398zm-459.774 31.911v16.44h50.58v-16.44zm133.338 0v16.44h50.577v-16.44zm99.774 0v16.44h50.577s3.21-8.682 3.21-16.44zm99.303 0v16.44h89.673l-5.979-16.44zm116.346 0-6.003 16.44h90.117v-16.44zm-448.761 31.956v16.422h50.58v-16.422zm133.338 0v16.422h129.186s10.806-8.424 14.25-16.422zm199.077 0v16.422h50.58v-9.141l3.21 9.141h92.649l3.444-9.141v9.141h50.577v-16.422h-94.944l-5.04 13.911-5.061-13.911zm-332.415 31.935v16.422h50.58v-16.422zm133.338 0v16.422h143.439c-3.447-7.968-14.25-16.422-14.25-16.422zm199.077 0v16.422h50.58v-16.422zm59.766 0 6.117 16.422h69.471l5.811-16.422zm90.117 0v16.422h50.577v-16.422zm-482.298 31.932v16.419h50.58v-16.419zm133.338 0v16.419h50.577v-16.419zm99.774 0v16.419h53.787c0-7.749-3.21-16.419-3.21-16.419zm99.303 0v16.419h50.58v-16.419zm71.25 0 5.931 16.419h46.572l5.973-16.419zm78.633 0v16.419h50.577v-16.419zm-514.947 31.935v16.443h116.793v-16.443zm132.423 0v16.443h179.79c3.783-3.768 5.955-16.443 5.955-16.443zm199.995 0v16.443h83.229v-16.443zm115.404 0 6.093 16.443h23.697l5.718-16.443zm67.125 0v16.443h84.141v-16.443zm-514.947 31.956v16.422h116.793v-16.422zm132.423 0v16.395h126.915c22.515 0 39.516-16.395 39.516-16.395zm199.995 0v16.422h83.229v-16.422zm126.96 0 5.856 16.377 1.011.021 5.952-16.395zm55.569 0v16.422h84.141v-16.422z" fill="#fff"/></svg>

<?xml version="1.0" encoding="utf-8"?>
<svg version="1.1" xmlns="http://www.w3.org/2000/svg">
  <g>
    <path d="M 0 0 L 0 16.422 L 116.79 16.422 L 116.79 0 L 0 0 Z M 133.335 0 L 133.335 16.422 L 299.766 16.422 C 299.766 16.422 282.765 0 260.25 0 L 133.335 0 Z M 332.412 0 L 332.412 16.422 L 433.101 16.422 L 427.125 0 L 332.412 0 Z M 505.29 0 L 499.314 16.422 L 599.088 16.422 L 599.088 0 L 505.29 0 Z M 0 31.932 L 0 48.354 L 116.79 48.354 L 116.79 31.932 L 0 31.932 Z M 133.335 31.956 L 133.335 48.354 L 319.08 48.354 C 319.08 48.354 316.908 35.715 313.125 31.956 L 133.335 31.956 Z M 332.412 31.956 L 332.412 48.354 L 444.141 48.354 L 438.606 31.956 L 332.412 31.956 Z M 493.335 31.956 L 487.803 48.354 L 599.085 48.354 L 599.085 31.956 L 493.335 31.956 Z M 33.561 63.867 L 33.561 80.307 L 84.141 80.307 L 84.141 63.867 L 33.561 63.867 Z M 166.899 63.867 L 166.899 80.307 L 217.476 80.307 L 217.476 63.867 L 166.899 63.867 Z M 266.673 63.867 L 266.673 80.307 L 317.25 80.307 C 317.25 80.307 320.46 71.625 320.46 63.867 L 266.673 63.867 Z M 365.976 63.867 L 365.976 80.307 L 455.649 80.307 L 449.67 63.867 L 365.976 63.867 Z M 482.322 63.867 L 476.319 80.307 L 566.436 80.307 L 566.436 63.867 L 482.322 63.867 Z M 33.561 95.823 L 33.561 112.245 L 84.141 112.245 L 84.141 95.823 L 33.561 95.823 Z M 166.899 95.823 L 166.899 112.245 L 296.085 112.245 C 296.085 112.245 306.891 103.821 310.335 95.823 L 166.899 95.823 Z M 365.976 95.823 L 365.976 112.245 L 416.556 112.245 L 416.556 103.104 L 419.766 112.245 L 512.415 112.245 L 515.859 103.104 L 515.859 112.245 L 566.436 112.245 L 566.436 95.823 L 471.492 95.823 L 466.452 109.734 L 461.391 95.823 L 365.976 95.823 Z M 33.561 127.758 L 33.561 144.18 L 84.141 144.18 L 84.141 127.758 L 33.561 127.758 Z M 166.899 127.758 L 166.899 144.18 L 310.338 144.18 C 306.891 136.212 296.088 127.758 296.088 127.758 L 166.899 127.758 Z M 365.976 127.758 L 365.976 144.18 L 416.556 144.18 L 416.556 127.758 L 365.976 127.758 Z M 425.742 127.758 L 431.859 144.18 L 501.33 144.18 L 507.141 127.758 L 425.742 127.758 Z M 515.859 127.758 L 515.859 144.18 L 566.436 144.18 L 566.436 127.758 L 515.859 127.758 Z M 33.561 159.69 L 33.561 176.109 L 84.141 176.109 L 84.141 159.69 L 33.561 159.69 Z M 166.899 159.69 L 166.899 176.109 L 217.476 176.109 L 217.476 159.69 L 166.899 159.69 Z M 266.673 159.69 L 266.673 176.109 L 320.46 176.109 C 320.46 168.36 317.25 159.69 317.25 159.69 L 266.673 159.69 Z M 365.976 159.69 L 365.976 176.109 L 416.556 176.109 L 416.556 159.69 L 365.976 159.69 Z M 437.226 159.69 L 443.157 176.109 L 489.729 176.109 L 495.702 159.69 L 437.226 159.69 Z M 515.859 159.69 L 515.859 176.109 L 566.436 176.109 L 566.436 159.69 L 515.859 159.69 Z M 0.912 191.625 L 0.912 208.068 L 117.705 208.068 L 117.705 191.625 L 0.912 191.625 Z M 133.335 191.625 L 133.335 208.068 L 313.125 208.068 C 316.908 204.3 319.08 191.625 319.08 191.625 L 133.335 191.625 Z M 333.33 191.625 L 333.33 208.068 L 416.559 208.068 L 416.559 191.625 L 333.33 191.625 Z M 448.734 191.625 L 454.827 208.068 L 478.524 208.068 L 484.242 191.625 L 448.734 191.625 Z M 515.859 191.625 L 515.859 208.068 L 600 208.068 L 600 191.625 L 515.859 191.625 Z M 0.912 223.581 L 0.912 240.003 L 117.705 240.003 L 117.705 223.581 L 0.912 223.581 Z M 133.335 223.581 L 133.335 239.976 L 260.25 239.976 C 282.765 239.976 299.766 223.581 299.766 223.581 L 133.335 223.581 Z M 333.33 223.581 L 333.33 240.003 L 416.559 240.003 L 416.559 223.581 L 333.33 223.581 Z M 460.29 223.581 L 466.146 239.958 L 467.157 239.979 L 473.109 223.584 L 460.29 223.581 L 460.29 223.581 Z M 515.859 223.581 L 515.859 240.003 L 600 240.003 L 600 223.581 L 515.859 223.581 Z" id="path3" style="fill-opacity: 1; fill: rgb(255, 255, 255);"/>
  </g>
</svg>
